Sweet-Rainbow/icons/teamspeak.svg

<?xml version="1.0" encoding="UTF-8" standalone="no"?>
<!-- Generator: Gravit.io -->

<svg
   xmlns:dc="http://purl.org/dc/elements/1.1/"
   xmlns:cc="http://creativecommons.org/ns#"
   xmlns:rdf="http://www.w3.org/1999/02/22-rdf-syntax-ns#"
   xmlns:svg="http://www.w3.org/2000/svg"
   xmlns="http://www.w3.org/2000/svg"
   xmlns:sodipodi="http://sodipodi.sourceforge.net/DTD/sodipodi-0.dtd"
   xmlns:inkscape="http://www.inkscape.org/namespaces/inkscape"
   style="isolation:isolate"
   viewBox="0 0 36 36"
   width="48"
   height="48"
   version="1.1"
   id="svg9"
   sodipodi:docname="teamspeak.svg"
   inkscape:version="0.92.4 (5da689c313, 2019-01-14)">
  <metadata
     id="metadata15">
    <rdf:RDF>
      <cc:Work
         rdf:about="">
        <dc:format>image/svg+xml</dc:format>
        <dc:type
           rdf:resource="http://purl.org/dc/dcmitype/StillImage" />
        <dc:title></dc:title>
      </cc:Work>
    </rdf:RDF>
  </metadata>
  <defs
     id="defs13" />
  <sodipodi:namedview
     pagecolor="#ffffff"
     bordercolor="#666666"
     borderopacity="1"
     objecttolerance="10"
     gridtolerance="10"
     guidetolerance="10"
     inkscape:pageopacity="0"
     inkscape:pageshadow="2"
     inkscape:window-width="640"
     inkscape:window-height="480"
     id="namedview11"
     showgrid="false"
     inkscape:zoom="29.365243"
     inkscape:cx="25.325443"
     inkscape:cy="32"
     inkscape:current-layer="svg9"
     units="px" />
  <linearGradient
     id="_lgradient_11"
     x1="-3.8208334e-05"
     y1="0.50000006"
     x2="0.99996185"
     y2="0.50000006"
     gradientTransform="scale(48)"
     gradientUnits="userSpaceOnUse">
    <stop
       offset="0%"
       stop-opacity="1"
       style="stop-color:rgb(0,198,255)"
       id="stop2" />
    <stop
       offset="98.69565217391305%"
       stop-opacity="1"
       style="stop-color:rgb(0,114,255)"
       id="stop4" />
  </linearGradient>
  <g
     id="g826"
     transform="scale(0.75)">
    <path
       id="path7"
       d="m 30.22,4.99 v 0 c 1.049,0.342 2.178,-0.231 2.52,-1.28 v 0 C 33.082,2.661 32.509,1.532 31.46,1.19 v 0 C 29.06,0.4 26.55,0 24.03,0 15.68,0 7.9,4.34 3.54,11.46 1.23,15.22 0,19.56 0,23.97 0,32.32 4.34,40.1 11.46,44.46 15.22,46.77 19.55,48 23.97,48 32.32,48 40.1,43.66 44.46,36.54 46.77,32.78 48,28.45 48,24.03 48,18.39 46.02,12.92 42.41,8.59 v 0 C 41.698,7.746 40.432,7.634 39.585,8.34 v 0 c -0.847,0.706 -0.957,1.97 -0.245,2.82 v 0 C 42.35,14.77 44,19.32 44,24.03 44,27.7 42.98,31.31 41.05,34.45 37.41,40.38 30.93,44 23.97,44 20.29,44 16.69,42.98 13.55,41.05 7.62,37.41 4,30.93 4,23.97 4,20.3 5.02,16.69 6.95,13.55 10.59,7.62 17.07,4 24.03,4 c 2.1,0 4.19,0.33 6.19,0.99 z M 9.049,24.863 C 9.098,24.396 9,23.856 9.098,23.291 c 0.148,-0.909 0.663,-1.621 1.474,-2.014 0.197,-0.098 0.295,-0.197 0.344,-0.467 0.344,-1.965 1.154,-3.783 2.334,-5.404 0.147,-0.196 0.245,-0.295 0.049,-0.565 -0.197,-0.295 -0.049,-0.614 0.147,-0.86 1.67,-1.867 3.635,-3.242 5.969,-4.004 5.601,-1.768 10.513,-0.565 14.763,3.587 0.393,0.393 0.909,0.761 0.393,1.424 -0.098,0.099 0.049,0.197 0.147,0.295 1.204,1.671 2.015,3.537 2.383,5.552 0.049,0.196 0.197,0.294 0.344,0.393 1.007,0.516 1.523,1.375 1.523,2.53 0,1.007 0.098,2.014 -0.049,3.021 -0.246,1.474 -1.72,2.481 -3.144,2.162 -0.393,-0.099 -0.565,-0.393 -0.565,-0.811 0,-1.67 0.049,-3.341 0,-5.011 -0.148,-4.495 -2.113,-7.885 -6.019,-10.047 -6.435,-3.537 -14.787,0.467 -16.187,7.787 -0.246,1.253 -0.197,2.579 -0.197,3.832 0,1.204 0,2.383 -0.049,3.587 0,0.393 -0.245,0.663 -0.712,0.663 C 10.204,29.039 9,27.885 9,26.018 9.049,25.723 9.049,25.354 9.049,24.863 Z m 12.681,6.014 c 0.639,-0.224 1.112,-0.65 1.254,-1.344 0.142,-0.695 -0.686,-1.658 -1.798,-2.666 -1.159,-1.053 -2.673,-2.174 -3.501,-2.577 -1.206,-0.694 -2.342,-0.089 -2.578,1.255 -0.284,1.478 0,2.867 0.828,4.1 0.591,0.873 1.419,1.254 2.436,1.344 0.568,-0.023 2.863,0.089 3.359,-0.112 z m 5.171,-0.171 c 0.696,0.096 1.346,0.241 2.042,0.289 0.92,0.048 1.616,-0.241 2.133,-0.843 0.65,-0.746 0.965,-1.685 0.92,-2.672 -0.045,-1.035 -0.831,-1.637 -1.886,-1.444 -0.965,0.144 -1.795,0.602 -2.671,0.939 -0.785,0.337 -1.481,0.746 -2.042,1.275 -0.786,0.795 -0.359,1.878 0.875,2.287 0.157,0.073 0.382,0.121 0.629,0.169 z m 8.438,-0.638 c -0.147,-0.141 -0.391,-0.047 -0.514,0.142 -0.464,1.417 -2.615,6.165 -9.949,6.661 -8.654,0.59 4.62,2.385 8.409,-0.331 1.296,-0.968 2.763,-1.937 2.714,-4.724 0,-0.543 -0.269,-1.464 -0.66,-1.748 z"
       inkscape:connector-curvature="0"
       style="fill:url(#_lgradient_11);fill-rule:evenodd" />
  </g>
</svg>

<?xml version="1.0" encoding="UTF-8" standalone="no"?><!-- Generator: Gravit.io --><svg xmlns="http://www.w3.org/2000/svg" xmlns:xlink="http://www.w3.org/1999/xlink" style="isolation:isolate" viewBox="0 0 48 48" width="48pt" height="48pt"><linearGradient id="_lgradient_11" x1="-0.000038208333333289435" y1="0.5000000833333331" x2="0.9999618333333335" y2="0.5000000833333331" gradientTransform="matrix(48,0,0,48,0,0)" gradientUnits="userSpaceOnUse"><stop offset="0%" stop-opacity="1" style="stop-color:rgb(0,198,255)"/><stop offset="98.69565217391305%" stop-opacity="1" style="stop-color:rgb(0,114,255)"/></linearGradient><path d=" M 30.22 4.99 L 30.22 4.99 C 31.269 5.332 32.398 4.759 32.74 3.71 L 32.74 3.71 C 33.082 2.661 32.509 1.532 31.46 1.19 L 31.46 1.19 C 29.06 0.4 26.55 0 24.03 0 C 15.68 0 7.9 4.34 3.54 11.46 C 1.23 15.22 0 19.56 0 23.97 C 0 32.32 4.34 40.1 11.46 44.46 C 15.22 46.77 19.55 48 23.97 48 C 32.32 48 40.1 43.66 44.46 36.54 C 46.77 32.78 48 28.45 48 24.03 C 48 18.39 46.02 12.92 42.41 8.59 L 42.41 8.59 C 41.698 7.746 40.432 7.634 39.585 8.34 L 39.585 8.34 C 38.738 9.046 38.628 10.31 39.34 11.16 L 39.34 11.16 C 42.35 14.77 44 19.32 44 24.03 C 44 27.7 42.98 31.31 41.05 34.45 C 37.41 40.38 30.93 44 23.97 44 C 20.29 44 16.69 42.98 13.55 41.05 C 7.62 37.41 4 30.93 4 23.97 C 4 20.3 5.02 16.69 6.95 13.55 C 10.59 7.62 17.07 4 24.03 4 C 26.13 4 28.22 4.33 30.22 4.99 L 30.22 4.99 L 30.22 4.99 L 30.22 4.99 Z  M 9.049 24.863 C 9.098 24.396 9 23.856 9.098 23.291 C 9.246 22.382 9.761 21.67 10.572 21.277 C 10.769 21.179 10.867 21.08 10.916 20.81 C 11.26 18.845 12.07 17.027 13.25 15.406 C 13.397 15.21 13.495 15.111 13.299 14.841 C 13.102 14.546 13.25 14.227 13.446 13.981 C 15.116 12.114 17.081 10.739 19.415 9.977 C 25.016 8.209 29.928 9.412 34.178 13.564 C 34.571 13.957 35.087 14.325 34.571 14.988 C 34.473 15.087 34.62 15.185 34.718 15.283 C 35.922 16.954 36.733 18.82 37.101 20.835 C 37.15 21.031 37.298 21.129 37.445 21.228 C 38.452 21.744 38.968 22.603 38.968 23.758 C 38.968 24.765 39.066 25.772 38.919 26.779 C 38.673 28.253 37.199 29.26 35.775 28.941 C 35.382 28.842 35.21 28.548 35.21 28.13 C 35.21 26.46 35.259 24.789 35.21 23.119 C 35.062 18.624 33.097 15.234 29.191 13.072 C 22.756 9.535 14.404 13.539 13.004 20.859 C 12.758 22.112 12.807 23.438 12.807 24.691 C 12.807 25.895 12.807 27.074 12.758 28.278 C 12.758 28.671 12.513 28.941 12.046 28.941 C 10.204 29.039 9 27.885 9 26.018 C 9.049 25.723 9.049 25.354 9.049 24.863 L 9.049 24.863 L 9.049 24.863 L 9.049 24.863 L 9.049 24.863 Z  M 21.73 30.877 C 22.369 30.653 22.842 30.227 22.984 29.533 C 23.126 28.838 22.298 27.875 21.186 26.867 C 20.027 25.814 18.513 24.693 17.685 24.29 C 16.479 23.596 15.343 24.201 15.107 25.545 C 14.823 27.023 15.107 28.412 15.935 29.645 C 16.526 30.518 17.354 30.899 18.371 30.989 C 18.939 30.966 21.234 31.078 21.73 30.877 L 21.73 30.877 L 21.73 30.877 Z  M 26.901 30.706 C 27.597 30.802 28.247 30.947 28.943 30.995 C 29.863 31.043 30.559 30.754 31.076 30.152 C 31.726 29.406 32.041 28.467 31.996 27.48 C 31.951 26.445 31.165 25.843 30.11 26.036 C 29.145 26.18 28.315 26.638 27.439 26.975 C 26.654 27.312 25.958 27.721 25.397 28.25 C 24.611 29.045 25.038 30.128 26.272 30.537 C 26.429 30.61 26.654 30.658 26.901 30.706 L 26.901 30.706 Z  M 35.339 30.068 C 35.192 29.927 34.948 30.021 34.825 30.21 C 34.361 31.627 32.21 36.375 24.876 36.871 C 16.222 37.461 29.496 39.256 33.285 36.54 C 34.581 35.572 36.048 34.603 35.999 31.816 C 35.999 31.273 35.73 30.352 35.339 30.068 Z " fill-rule="evenodd" fill="url(#_lgradient_11)"/></svg>
